svg/24/new--filled.svg

<svg width="24" height="24" viewBox="0 0 24 24" fill="currentColor" xmlns="http://www.w3.org/2000/svg"><path fill-rule="evenodd" clip-rule="evenodd" d="M13.4101 2.58171C12.63 1.8061 11.37 1.8061 10.5899 2.58171L9.40815 3.75663C9.03483 4.1278 8.53023 4.33681 8.0038 4.33833L6.3374 4.34314C5.23734 4.34632 4.34636 5.2373 4.34318 6.33736L4.33837 8.00376C4.33685 8.53019 4.12784 9.03479 3.75667 9.40811L2.58175 10.5898C1.80614 11.3699 1.80614 12.63 2.58175 13.4101L3.75667 14.5918C4.12784 14.9651 4.33685 15.4697 4.33837 15.9962L4.34318 17.6626C4.34636 18.7626 5.23734 19.6536 6.3374 19.6568L8.0038 19.6616C8.53023 19.6631 9.03483 19.8721 9.40815 20.2433L10.5899 21.4182C11.37 22.1938 12.63 22.1938 13.4101 21.4182L14.5918 20.2433C14.9652 19.8721 15.4698 19.6631 15.9962 19.6616L17.6626 19.6568C18.7627 19.6536 19.6536 18.7626 19.6568 17.6626L19.6616 15.9962C19.6631 15.4697 19.8722 14.9651 20.2433 14.5918L21.4182 13.4101C22.1939 12.63 22.1939 11.3699 21.4182 10.5898L20.2433 9.40811C19.8722 9.03479 19.6631 8.53019 19.6616 8.00376L19.6568 6.33736C19.6536 5.2373 18.7627 4.34632 17.6626 4.34314L15.9962 4.33833C15.4698 4.33681 14.9652 4.1278 14.5918 3.75663L13.4101 2.58171ZM12.9303 7.35873C12.5973 6.51459 11.4027 6.51459 11.0697 7.35873L10.0201 10.0201L7.35872 11.0698C6.51457 11.4027 6.51457 12.5974 7.35872 12.9303L10.0201 13.9799L11.0697 16.6413C11.4027 17.4854 12.5973 17.4854 12.9303 16.6413L13.9799 13.9799L16.6413 12.9303C17.4854 12.5974 17.4854 11.4027 16.6413 11.0698L13.9799 10.0201L12.9303 7.35873Z"/></svg>

<svg xmlns="http://www.w3.org/2000/svg" width="24" height="24" fill="currentColor" viewBox="0 0 24 24">
  <path fill-rule="evenodd" d="M13.41 2.582a2 2 0 0 0-2.82 0L9.408 3.757a2 2 0 0 1-1.404.581l-1.667.005a2 2 0 0 0-1.994 1.994l-.005 1.667a2 2 0 0 1-.581 1.404L2.582 10.59a2 2 0 0 0 0 2.82l1.175 1.182a2 2 0 0 1 .581 1.404l.005 1.667a2 2 0 0 0 1.994 1.994l1.667.005a2 2 0 0 1 1.404.581l1.182 1.175a2 2 0 0 0 2.82 0l1.182-1.175a2 2 0 0 1 1.404-.581l1.667-.005a2 2 0 0 0 1.994-1.994l.005-1.667a2 2 0 0 1 .581-1.404l1.175-1.182a2 2 0 0 0 0-2.82l-1.175-1.182a2 2 0 0 1-.581-1.404l-.005-1.667a2 2 0 0 0-1.994-1.994l-1.667-.005a2 2 0 0 1-1.404-.581L13.41 2.582Zm-.48 4.777c-.333-.844-1.527-.844-1.86 0l-1.05 2.661-2.661 1.05c-.844.333-.844 1.527 0 1.86l2.661 1.05 1.05 2.661c.333.844 1.527.844 1.86 0l1.05-2.661 2.661-1.05c.844-.333.844-1.527 0-1.86l-2.661-1.05-1.05-2.661Z" clip-rule="evenodd"/>
</svg>
